images/icons/Group.svg

<svg width="104" height="73" viewBox="0 0 104 73" fill="none" xmlns="http://www.w3.org/2000/svg">
<path d="M13.2583 48.6903C13.2583 56.5643 19.8726 62.9419 28.039 62.9419C32.233 62.9419 36.0206 61.2674 38.6996 58.5595L40.4363 60.537L41.3601 61.5702L42.6534 63.0488L40.8613 64.7768L39.3093 63.2804C36.852 65.044 33.9328 66.2554 30.7734 66.7008V68.8029H25.323V66.683C22.1452 66.2376 19.2445 65.044 16.7872 63.2626L15.2352 64.759L11.3737 61.0536L12.9257 59.5572C11.0966 57.1878 9.84022 54.3731 9.37832 51.3268H7.17969V46.0715H9.37832C9.84022 43.0074 11.0781 40.2105 12.9257 37.8412L11.3737 36.3448L15.2352 32.6215L16.7872 34.118C19.2445 32.3543 22.1452 31.1429 25.323 30.6976V28.5776H30.7734V30.6798C33.9513 31.1251 36.852 32.3187 39.3093 34.1002L40.8613 32.6037L44.6673 36.2735L42.986 37.574L42.0068 38.34L39.8081 40.0502C37.1107 36.6476 32.8427 34.4386 28.0575 34.4386C19.8726 34.4386 13.2583 40.8162 13.2583 48.6903Z" fill="black"/>
<path d="M8.91641 64.9907C8.91641 64.9907 -16.0261 31.3746 37.9975 16.3391C37.9975 16.3391 27.5956 10.2109 31.1614 0.55542C31.1614 0.55542 -18.2432 32.9601 8.91641 64.9907Z" fill="#488DCD"/>
<path d="M26.5425 23.2156L39.7343 18.762C39.7343 18.762 53.7021 31.5706 51.485 42.9898C51.485 42.9898 47.1431 22.0042 26.5425 23.2156Z" fill="#488DCD"/>
<path d="M32.5839 45.6445C32.5839 46.8559 32.159 47.7822 31.3091 48.4414C30.4592 49.1005 29.2213 49.4212 27.6324 49.4212H26.1728V54.1242H24.7317V42.1884H27.9465C31.032 42.1706 32.5839 43.3286 32.5839 45.6445ZM26.1728 48.2276H27.4661C28.741 48.2276 29.6648 48.0316 30.2375 47.6397C30.8103 47.2478 31.0874 46.6065 31.0874 45.7335C31.0874 44.9497 30.8103 44.3618 30.2745 43.9699C29.7387 43.578 28.9072 43.382 27.7617 43.382H26.1543V48.2276H26.1728Z" fill="black"/>
<path d="M38.8842 54.2664C37.517 54.2664 36.4269 53.8567 35.6324 53.055C34.8379 52.2533 34.45 51.131 34.45 49.7059C34.45 48.2629 34.8195 47.1227 35.5585 46.2676C36.2975 45.4125 37.2768 44.985 38.5331 44.985C39.6971 44.985 40.6209 45.3591 41.286 46.0895C41.9696 46.8199 42.3022 47.7997 42.3022 49.0111V49.8662H35.9095C35.9465 50.9173 36.2052 51.7189 36.741 52.2533C37.2583 52.8056 37.9973 53.0728 38.9396 53.0728C39.9373 53.0728 40.935 52.8769 41.8957 52.4671V53.6785C41.3969 53.8923 40.935 54.0348 40.4916 54.1239C40.0482 54.2308 39.5123 54.2664 38.8842 54.2664ZM38.4962 46.1251C37.7571 46.1251 37.1474 46.3567 36.7225 46.8199C36.2791 47.2831 36.0204 47.9422 35.9465 48.7617H40.8057C40.8057 47.9066 40.6024 47.2474 40.2144 46.8021C39.808 46.3567 39.2352 46.1251 38.4962 46.1251Z" fill="black"/>
<path d="M49.5079 52.8057L49.7666 52.0396L50.1361 51.0777L52.6488 45.181H54.441V54.1061H53.2031V46.7131L53.0368 47.1941L52.5379 48.4411L50.1361 54.1061H48.9536L46.5517 48.4233C46.2561 47.6929 46.0529 47.1228 45.942 46.7131V54.1061H44.6857V45.181H46.4039L48.8428 50.8639C49.0829 51.4518 49.3047 52.0931 49.5079 52.8057Z" fill="black"/>
<path d="M66.5612 54.106H64.8244L59.0969 48.0491V54.106H57.6558V42.1703H59.0969V47.96L64.6766 42.1703H66.321L60.8521 47.96L66.5612 54.106Z" fill="black"/>
<path d="M76.0578 49.6168C76.0578 51.0776 75.6698 52.2177 74.9123 53.0372C74.1547 53.8567 73.1016 54.2664 71.7529 54.2664C70.9214 54.2664 70.1824 54.0704 69.5357 53.6963C68.8891 53.3222 68.3902 52.7878 68.0392 52.0752C67.6881 51.3626 67.5219 50.5431 67.5219 49.6168C67.5219 48.156 67.8914 47.0159 68.6489 46.2142C69.4064 45.3947 70.4595 44.985 71.8083 44.985C73.1016 44.985 74.1363 45.3947 74.9123 46.232C75.6883 47.0693 76.0578 48.2094 76.0578 49.6168ZM68.9999 49.6168C68.9999 50.7569 69.2401 51.6298 69.7205 52.2355C70.2009 52.8412 70.8845 53.1263 71.8083 53.1263C72.7321 53.1263 73.4342 52.8234 73.8961 52.2355C74.3765 51.6476 74.6166 50.7747 74.6166 49.6168C74.6166 48.4766 74.3765 47.6216 73.8961 47.0159C73.4157 46.428 72.7136 46.1251 71.7898 46.1251C70.866 46.1251 70.1824 46.4102 69.702 46.998C69.2216 47.6037 68.9999 48.4766 68.9999 49.6168Z" fill="black"/>
<path d="M83.3559 52.8057L83.6146 52.0396L83.9841 51.0777L86.4968 45.181H88.289V54.1061H87.0511V46.7131L86.8848 47.1941L86.3859 48.4411L83.9841 54.1061H82.8016L80.3998 48.4233C80.1041 47.6929 79.9009 47.1228 79.79 46.7131V54.1061H78.5337V45.181H80.2519L82.6908 50.8639C82.931 51.4518 83.1527 52.0931 83.3559 52.8057Z" fill="black"/>
<path d="M59.2263 60.3766C58.0993 60.3766 57.194 60.7329 56.5473 61.4633C55.8822 62.1937 55.5681 63.1913 55.5681 64.4562C55.5681 65.7566 55.8822 66.772 56.5104 67.4668C57.1386 68.1794 58.0439 68.5357 59.2079 68.5357C59.9284 68.5357 60.7414 68.411 61.6652 68.1616V69.177C60.9446 69.4442 60.0762 69.5689 59.0231 69.5689C57.5081 69.5689 56.3256 69.1236 55.5127 68.2328C54.6812 67.3421 54.2748 66.0773 54.2748 64.4383C54.2748 63.4051 54.478 62.5144 54.866 61.7483C55.2725 60.9823 55.8452 60.3766 56.5843 59.9669C57.3418 59.5572 58.2102 59.3434 59.2263 59.3434C60.3164 59.3434 61.2587 59.5393 62.0716 59.9135L61.5543 60.9111C60.7783 60.5548 60.0023 60.3766 59.2263 60.3766Z" fill="black"/>
<path d="M67.0232 69.569C65.8777 69.569 64.9724 69.2306 64.3073 68.5536C63.6421 67.8767 63.3096 66.9503 63.3096 65.7567C63.3096 64.5631 63.6237 63.6012 64.2334 62.8886C64.8431 62.176 65.6745 61.8197 66.7091 61.8197C67.6699 61.8197 68.4458 62.1226 69.0186 62.7461C69.5913 63.3696 69.8685 64.1712 69.8685 65.1867V65.8992H64.5474C64.5659 66.7722 64.8061 67.4313 65.2311 67.8945C65.656 68.3576 66.2842 68.5714 67.0786 68.5714C67.91 68.5714 68.7415 68.4111 69.5544 68.0726V69.088C69.1479 69.2662 68.7415 69.3909 68.3719 69.4622C68.0024 69.5334 67.5405 69.569 67.0232 69.569ZM66.6906 62.7995C66.0625 62.7995 65.5821 62.9955 65.2126 63.3874C64.8431 63.7793 64.6214 64.3137 64.5659 65.0085H68.6121C68.6121 64.2959 68.4458 63.7437 68.1133 63.3696C67.7807 62.9777 67.3003 62.7995 66.6906 62.7995Z" fill="black"/>
<path d="M75.4483 69.569C74.9494 69.569 74.4875 69.48 74.0626 69.3018C73.6376 69.1237 73.3051 68.8386 73.0094 68.4823H72.9171C72.9725 68.9099 73.0094 69.3374 73.0094 69.7294V72.7935H71.8455V61.98H72.8062L72.9725 62.9955H73.0279C73.3235 62.5857 73.6746 62.3007 74.081 62.1047C74.4875 61.9266 74.9309 61.8375 75.4483 61.8375C76.4829 61.8375 77.2589 62.176 77.8316 62.853C78.3859 63.5299 78.6631 64.4741 78.6631 65.7033C78.6631 66.9325 78.3859 67.8767 77.8132 68.5536C77.2404 69.2306 76.4644 69.569 75.4483 69.569ZM75.282 62.7995C74.4875 62.7995 73.9148 63.0133 73.5637 63.4408C73.2127 63.8684 73.0279 64.5275 73.0279 65.4539V65.7033C73.0279 66.7543 73.2127 67.5025 73.5637 67.9479C73.9332 68.3933 74.506 68.6249 75.3005 68.6249C75.9656 68.6249 76.4829 68.3576 76.8709 67.841C77.2589 67.3244 77.4436 66.594 77.4436 65.6855C77.4436 64.7591 77.2589 64.0465 76.8709 63.5477C76.5014 63.0489 75.9656 62.7995 75.282 62.7995Z" fill="black"/>
<path d="M86.9957 63.8505C86.9957 64.3315 86.8479 64.7056 86.5708 64.955C86.2752 65.2044 85.8687 65.3826 85.3514 65.4538V65.5073C86.0165 65.5963 86.4969 65.7745 86.7925 66.0595C87.0881 66.3445 87.2544 66.7365 87.2544 67.2353C87.2544 67.93 86.9957 68.4645 86.4599 68.8386C85.9241 69.2127 85.1666 69.4086 84.1505 69.4086H80.7324V61.9443H84.132C86.035 61.98 86.9957 62.6035 86.9957 63.8505ZM85.8502 63.9574C85.8502 63.6011 85.7024 63.3339 85.4253 63.1914C85.1297 63.031 84.7047 62.9598 84.1135 62.9598H81.8964V65.0619H83.8733C84.5939 65.0619 85.1112 64.9728 85.4068 64.7947C85.7024 64.6165 85.8502 64.3493 85.8502 63.9574ZM86.0719 67.1996C86.0719 66.7899 85.9057 66.5049 85.5916 66.3267C85.2775 66.1486 84.7417 66.0595 84.0211 66.0595H81.8964V68.5179H84.0581C85.3883 68.5001 86.0719 68.0547 86.0719 67.1996Z" fill="black"/>
<path d="M90.0442 61.98V66.7008L89.9888 67.9479L89.9703 68.3398L94.1643 61.98H95.6239V69.4443H94.5154V64.8837L94.5339 63.993L94.5708 63.1023L90.3953 69.4443H88.9357V61.98H90.0442Z" fill="black"/>
<path d="M101.185 69.569C100.058 69.569 99.1897 69.2305 98.58 68.5713C97.9703 67.9122 97.6562 66.968 97.6562 65.7566C97.6562 64.5096 97.9703 63.5476 98.5985 62.8707C99.2267 62.1937 100.114 61.8552 101.259 61.8552C101.629 61.8552 101.998 61.8909 102.368 61.9621C102.737 62.0334 103.033 62.1224 103.236 62.2293L102.885 63.1913C102.626 63.0844 102.349 63.0132 102.035 62.9419C101.721 62.8707 101.462 62.835 101.222 62.835C99.6516 62.835 98.8572 63.797 98.8572 65.7388C98.8572 66.6474 99.0419 67.3599 99.4299 67.8409C99.8179 68.3397 100.391 68.5713 101.13 68.5713C101.776 68.5713 102.441 68.4288 103.107 68.1616V69.1592C102.626 69.4443 101.98 69.569 101.185 69.569Z" fill="black"/>
<path d="M93.1112 56.1545H23.0321V56.6712H93.1112V56.1545Z" fill="black"/>
</svg>

<svg width="104" height="73" fill="none" xmlns="http://www.w3.org/2000/svg"><path d="M13.258 48.69c0 7.874 6.615 14.252 14.781 14.252 4.194 0 7.982-1.675 10.66-4.383l1.737 1.978.924 1.033 1.293 1.479-1.792 1.728-1.552-1.497a19.26 19.26 0 01-8.536 3.42v2.103h-5.45v-2.12a18.969 18.969 0 01-8.536-3.42l-1.552 1.496-3.861-3.705 1.552-1.497c-1.83-2.37-3.086-5.184-3.548-8.23H7.18v-5.255h2.198a17.59 17.59 0 013.548-8.23l-1.552-1.497 3.861-3.724 1.552 1.497a19.17 19.17 0 018.536-3.42v-2.12h5.45v2.102a18.966 18.966 0 018.536 3.42l1.552-1.496 3.806 3.67-1.681 1.3-.98.766-2.198 1.71c-2.697-3.402-6.965-5.611-11.75-5.611-8.185 0-14.8 6.377-14.8 14.251z" fill="#000"/><path d="M8.916 64.99s-24.942-33.615 29.082-48.65c0 0-10.402-6.13-6.837-15.785 0 0-49.404 32.405-22.245 64.436z" fill="#488DCD"/><path d="M26.543 23.216l13.191-4.454S53.702 31.571 51.485 42.99c0 0-4.342-20.986-24.942-19.774z" fill="#488DCD"/><path d="M32.584 45.645c0 1.21-.425 2.137-1.275 2.796-.85.66-2.088.98-3.677.98h-1.46v4.703h-1.44V42.188h3.215c3.085-.017 4.637 1.14 4.637 3.456zm-6.411 2.583h1.293c1.275 0 2.199-.196 2.771-.588.573-.392.85-1.034.85-1.907 0-.783-.277-1.371-.813-1.763-.535-.392-1.367-.588-2.512-.588h-1.608v4.846h.019zm12.711 6.038c-1.367 0-2.457-.41-3.252-1.211-.794-.802-1.182-1.924-1.182-3.35 0-1.442.37-2.582 1.108-3.437.74-.855 1.719-1.283 2.975-1.283 1.164 0 2.088.374 2.753 1.105.684.73 1.016 1.71 1.016 2.921v.855H35.91c.037 1.051.295 1.853.831 2.387.517.553 1.256.82 2.199.82.997 0 1.995-.196 2.956-.606v1.212c-.5.213-.961.356-1.404.445-.444.107-.98.142-1.608.142zm-.388-8.14c-.739 0-1.349.23-1.774.694-.443.463-.702 1.122-.776 1.942h4.86c0-.855-.204-1.515-.592-1.96-.406-.445-.979-.677-1.718-.677zm11.012 6.68l.259-.766.37-.962 2.512-5.897h1.792v8.925h-1.238v-7.393l-.166.481-.5 1.247-2.4 5.665h-1.183l-2.402-5.683c-.296-.73-.5-1.3-.61-1.71v7.393h-1.256v-8.925h1.718l2.439 5.683c.24.588.462 1.23.665 1.942zm17.053 1.3h-1.737l-5.727-6.057v6.057h-1.441V42.17h1.44v5.79l5.58-5.79h1.645l-5.469 5.79 5.71 6.146zm9.497-4.489c0 1.46-.388 2.6-1.146 3.42-.757.82-1.81 1.23-3.16 1.23-.83 0-1.57-.197-2.216-.57a3.714 3.714 0 01-1.497-1.622c-.35-.712-.517-1.532-.517-2.458 0-1.461.37-2.601 1.127-3.403.757-.82 1.81-1.229 3.16-1.229 1.293 0 2.327.41 3.103 1.247.776.837 1.146 1.977 1.146 3.385zm-7.058 0c0 1.14.24 2.013.72 2.619.48.605 1.165.89 2.088.89.924 0 1.626-.303 2.088-.89.48-.588.72-1.461.72-2.62 0-1.14-.24-1.994-.72-2.6-.48-.588-1.182-.89-2.106-.89-.924 0-1.608.284-2.088.872-.48.606-.702 1.479-.702 2.619zm14.356 3.189l.259-.766.37-.962 2.512-5.897h1.792v8.925h-1.238v-7.393l-.166.481-.5 1.247-2.4 5.665h-1.183L80.4 48.423c-.296-.73-.5-1.3-.61-1.71v7.393h-1.256v-8.925h1.718l2.439 5.683c.24.588.462 1.23.665 1.942zm-24.13 7.571c-1.127 0-2.032.356-2.679 1.086-.665.73-.979 1.728-.979 2.993 0 1.3.314 2.316.942 3.01.629.713 1.534 1.07 2.698 1.07.72 0 1.533-.125 2.457-.374v1.015c-.72.267-1.589.392-2.642.392-1.515 0-2.697-.445-3.51-1.336-.832-.89-1.238-2.156-1.238-3.795 0-1.033.203-1.924.591-2.69.407-.766.98-1.371 1.718-1.781.758-.41 1.626-.624 2.642-.624 1.09 0 2.033.196 2.846.57l-.518.998c-.776-.356-1.552-.534-2.328-.534zm7.797 9.192c-1.145 0-2.05-.338-2.716-1.015-.665-.677-.997-1.604-.997-2.797 0-1.194.314-2.156.923-2.868.61-.713 1.441-1.07 2.476-1.07.96 0 1.737.304 2.31.927.572.624.85 1.425.85 2.44v.713h-5.322c.019.873.26 1.532.684 1.995.425.464 1.053.677 1.848.677a6.4 6.4 0 002.475-.498v1.015a5.656 5.656 0 01-1.182.374c-.37.071-.832.107-1.349.107zm-.332-6.77c-.629 0-1.109.197-1.478.588-.37.392-.592.927-.647 1.621h4.046c0-.712-.166-1.264-.499-1.638-.332-.392-.813-.57-1.422-.57zm8.757 6.77c-.499 0-.96-.089-1.385-.267-.425-.178-.758-.463-1.054-.82h-.092c.055.428.092.855.092 1.247v3.064h-1.163V61.98h.96l.166 1.016h.056a2.74 2.74 0 011.053-.891c.406-.178.85-.267 1.367-.267 1.035 0 1.81.338 2.384 1.015.554.677.831 1.621.831 2.85 0 1.23-.277 2.174-.85 2.85-.573.678-1.349 1.016-2.365 1.016zm-.166-6.77c-.794 0-1.367.214-1.718.642-.351.427-.536 1.087-.536 2.013v.25c0 1.05.185 1.799.536 2.244.37.445.942.677 1.737.677.665 0 1.182-.267 1.57-.784.388-.517.573-1.247.573-2.155 0-.927-.185-1.64-.573-2.138-.37-.5-.905-.748-1.589-.748zm11.714 1.051c0 .482-.148.856-.425 1.105-.296.25-.702.428-1.22.499v.053c.665.09 1.146.267 1.442.552.295.285.461.678.461 1.176 0 .695-.258 1.23-.794 1.604-.536.374-1.293.57-2.31.57h-3.418v-7.465h3.4c1.903.036 2.864.66 2.864 1.906zm-1.146.107c0-.356-.148-.623-.425-.766-.295-.16-.72-.231-1.311-.231h-2.218v2.102h1.977c.72 0 1.238-.09 1.534-.267.295-.178.443-.446.443-.838zm.222 3.243c0-.41-.166-.695-.48-.873-.314-.178-.85-.267-1.57-.267h-2.126v2.458h2.162c1.33-.018 2.014-.463 2.014-1.318zm3.972-5.22v4.72l-.055 1.248-.019.392 4.194-6.36h1.46v7.464h-1.109v-4.56l.019-.891.037-.89-4.176 6.341h-1.46V61.98h1.11zm11.141 7.589c-1.127 0-1.995-.338-2.605-.998-.61-.659-.924-1.603-.924-2.814 0-1.247.314-2.21.942-2.886.629-.677 1.516-1.016 2.661-1.016.37 0 .739.036 1.109.107.369.071.665.16.868.267l-.351.962a5.271 5.271 0 00-.85-.25 3.668 3.668 0 00-.813-.106c-1.57 0-2.365.962-2.365 2.904 0 .908.185 1.62.573 2.102.388.499.961.73 1.7.73.646 0 1.311-.142 1.977-.41v.998c-.481.285-1.127.41-1.922.41zm-8.074-13.415H23.032v.517h70.08v-.517z" fill="#000"/></svg>
